dist/intermediate-svg/installation.svg

<?xml version="1.0" encoding="utf-8"?><svg width="24" height="23.23" fill="none" xmlns="http://www.w3.org/2000/svg" viewBox="0 0 31 30"><circle cx="15.5" cy="15" r="14.5" stroke="#BABABA"/><path d="M23.3538 9.99274L13.6423 20.9353C13.3687 21.2088 12.89 21.2772 12.6164 20.9353L7.69228 15.7377C7.4871 15.4641 7.41871 15.1221 7.62388 14.8485L8.30779 14.0279C8.51296 13.7543 8.85492 13.6859 9.12849 13.8227L12.7532 15.6007L21.5072 8.14622C21.7808 7.94105 22.1911 7.94111 22.4647 8.21468L23.2854 9.03533C23.5589 9.3089 23.5589 9.71917 23.3538 9.99274Z" fill="#333"/></svg>

<?xml version="1.0" encoding="utf-8"?><svg width="24" height="23.23" fill="none" xmlns="http://www.w3.org/2000/svg" viewBox="0 0 31 30"><circle cx="15.5" cy="15" r="14.5" stroke="#BABABA"/><path d="M23.354 9.993l-9.712 10.942c-.273.274-.752.342-1.026 0l-4.924-5.197c-.205-.274-.273-.616-.068-.89l.684-.82a.653.653 0 01.82-.205l3.625 1.778 8.754-7.455a.732.732 0 01.958.069l.82.82a.732.732 0 01.069.958z" fill="#333"/></svg>
